icons/mobile/24/svg/logo-chrome-24.svg

<svg width="24" height="24" viewBox="0 0 24 24" fill="none" xmlns="http://www.w3.org/2000/svg">
<path fill-rule="evenodd" clip-rule="evenodd" d="M12 2C17.523 2 22 6.477 22 12C22 17.523 17.523 22 12 22C6.477 22 2 17.523 2 12C2 6.477 6.477 2 12 2ZM14.8936 9.25098C15.5754 9.96795 16 10.9331 16 12.001C16 12.836 15.7427 13.611 15.3047 14.252L11.8438 20.2451C11.8957 20.2461 11.9478 20.25 12 20.25C16.549 20.25 20.25 16.549 20.25 12C20.25 11.0364 20.0824 10.1114 19.7773 9.25098H14.8936ZM4.93457 7.74512C4.18311 8.98827 3.75 10.4445 3.75 12C3.75 16.0302 6.65554 19.3914 10.4814 20.1064L12.9199 15.8838C12.624 15.9538 12.3189 16 12.001 16C10.6041 16 9.37711 15.2811 8.66211 14.1973H8.66016L4.93457 7.74512ZM11.999 9.25C10.4831 9.25004 9.24902 10.484 9.24902 12C9.24902 12.565 9.42084 13.0913 9.71484 13.5283L9.7207 13.5381C10.2157 14.2691 11.053 14.75 12 14.75C13.516 14.75 14.75 13.516 14.75 12C14.75 10.484 13.515 9.25 11.999 9.25ZM12 3.75C9.49728 3.75 7.25254 4.87135 5.73828 6.63672L8.18164 10.8711C8.67063 9.21512 10.186 8.00004 12 8H19.2119C17.8018 5.46768 15.0983 3.75 12 3.75Z" fill="black"/>
</svg>

<!-- This Source Code Form is subject to the terms of the Mozilla Public
   - License, v. 2.0. If a copy of the MPL was not distributed with this
   - file, You can obtain one at http://mozilla.org/MPL/2.0/. -->
<svg xmlns="http://www.w3.org/2000/svg" width="24" height="24" fill="none">
    <path fill="#000" fill-rule="evenodd" d="M2 12C2 6.477 6.477 2 12 2s10 4.477 10 10-4.477 10-10 10S2 17.523 2 12m17.214-4A8.26 8.26 0 0 0 12 3.75a8.24 8.24 0 0 0-6.264 2.886l2.446 4.235C8.671 9.215 10.186 8 12 8zm.565 1.25h-4.886a3.98 3.98 0 0 1 .411 5.002l-3.462 5.996q.078.002.158.002c4.549 0 8.25-3.701 8.25-8.25 0-.964-.166-1.89-.471-2.75m-9.3 10.86 2.44-4.226c-.296.07-.601.116-.919.116a4 4 0 0 1-3.339-1.804l-.002.001-3.725-6.452A8.2 8.2 0 0 0 3.75 12c0 4.03 2.904 7.394 6.73 8.11zM12 14.75A2.754 2.754 0 0 0 14.75 12 2.754 2.754 0 0 0 12 9.25 2.754 2.754 0 0 0 9.25 12c0 .565.172 1.091.465 1.528l.006.01A2.75 2.75 0 0 0 12 14.75" clip-rule="evenodd" />
</svg>
